public/images/docker.svg

<svg width="55" height="41" viewBox="0 0 55 41" fill="none" xmlns="http://www.w3.org/2000/svg">
<g id="Group 50">
<path id="Vector" d="M54.4415 15.4933C54.2931 15.3748 52.9078 14.3237 49.9862 14.3237C49.2148 14.327 48.445 14.3935 47.6843 14.5225C47.1188 10.6277 43.9145 8.7288 43.7709 8.64361L42.9864 8.18896L42.4704 8.93719C41.8242 9.94228 41.3525 11.0503 41.0756 12.214C40.5525 14.4373 40.8706 16.5255 41.9945 18.3108C40.6374 19.0708 38.4604 19.2579 38.0199 19.2744H1.97695C1.03552 19.2757 0.271589 20.0402 0.266459 20.9862C0.224418 24.1594 0.759381 27.3135 1.845 30.2935C3.08661 33.5657 4.93379 35.9759 7.33699 37.451C10.03 39.1083 14.4051 40.0554 19.3646 40.0554C21.6051 40.0625 23.8413 39.8587 26.0441 39.4469C29.1061 38.8819 32.0525 37.8064 34.7614 36.2647C36.9936 34.9658 39.0025 33.3133 40.7105 31.3708C43.566 28.1223 45.2672 24.5045 46.5323 21.2893H47.0365C50.163 21.2893 52.0856 20.032 53.1458 18.9784C53.8503 18.3065 54.4004 17.4879 54.7573 16.58L54.9811 15.9218L54.4415 15.4933Z" fill="#2496ED"/>
<path id="Vector_2" d="M5.31782 18.2138H10.1477C10.3806 18.2138 10.5694 18.024 10.5694 17.79V13.4666C10.5707 13.2325 10.3829 13.0417 10.1501 13.0404C10.1493 13.0404 10.1485 13.0404 10.1477 13.0404H5.31782C5.08488 13.0404 4.89612 13.2302 4.89612 13.4642V13.4666V17.7899C4.89612 18.024 5.08488 18.2138 5.31782 18.2138V18.2138Z" fill="#2496ED"/>
<path id="Vector_3" d="M11.9737 18.2138H16.8036C17.0365 18.2138 17.2253 18.024 17.2253 17.79V13.4666C17.2266 13.2325 17.0388 13.0417 16.8059 13.0404C16.8051 13.0404 16.8043 13.0404 16.8035 13.0404H11.9736C11.7393 13.0404 11.5495 13.2312 11.5495 13.4666V17.7899C11.5509 18.0244 11.7403 18.2138 11.9737 18.2138" fill="#2496ED"/>
<path id="Vector_4" d="M18.7308 18.2138H23.5607C23.7937 18.2138 23.9824 18.024 23.9824 17.79V13.4666C23.9837 13.2325 23.796 13.0417 23.563 13.0404C23.5622 13.0404 23.5614 13.0404 23.5606 13.0404H18.7307C18.4978 13.0404 18.309 13.2302 18.309 13.4642V13.4666V17.7899C18.3091 18.024 18.4979 18.2138 18.7308 18.2138V18.2138Z" fill="#2496ED"/>
<path id="Vector_5" d="M25.4079 18.2138H30.2378C30.4711 18.2138 30.6606 18.0245 30.6619 17.79V13.4666C30.6619 13.2312 30.472 13.0404 30.2378 13.0404H25.4079C25.1749 13.0404 24.9861 13.2302 24.9861 13.4642V13.4666V17.7899C24.9861 18.024 25.175 18.2138 25.4079 18.2138V18.2138Z" fill="#2496ED"/>
<path id="Vector_6" d="M11.9737 11.994H16.8036C17.0368 11.9927 17.2253 11.8022 17.2253 11.5678V7.24446C17.2253 7.01037 17.0364 6.82068 16.8036 6.82068H11.9737C11.7404 6.82068 11.5509 7.00999 11.5496 7.24446V11.5678C11.5509 11.8027 11.74 11.9927 11.9737 11.994Z" fill="#2496ED"/>
<path id="Vector_7" d="M18.7308 11.994H23.5607C23.7939 11.9927 23.9824 11.8022 23.9824 11.5678V7.24446C23.9824 7.01037 23.7935 6.82068 23.5607 6.82068H18.7308C18.4978 6.82068 18.3091 7.01045 18.3091 7.24446V11.5678C18.3091 11.8022 18.4975 11.9927 18.7308 11.994Z" fill="#2496ED"/>
<path id="Vector_8" d="M25.4079 11.994H30.2378C30.4715 11.9927 30.6606 11.8027 30.6619 11.5678V7.24446C30.6606 7.00999 30.4711 6.82068 30.2378 6.82068H25.4079C25.1749 6.82068 24.9861 7.01045 24.9861 7.24446V11.5678C24.9861 11.8022 25.1746 11.9927 25.4079 11.994Z" fill="#2496ED"/>
<path id="Vector_9" d="M25.4079 5.77177H30.2378C30.4711 5.77177 30.6606 5.58238 30.6619 5.34798V1.02217C30.6606 0.787695 30.4711 0.598389 30.2378 0.598389H25.4079C25.1749 0.598389 24.9861 0.78808 24.9861 1.02217V5.34791C24.9861 5.582 25.175 5.77177 25.4079 5.77177Z" fill="#2496ED"/>
<path id="Vector_10" d="M32.1438 18.2138H36.9737C37.2071 18.2138 37.3965 18.0245 37.3978 17.79V13.4666C37.3978 13.2312 37.208 13.0404 36.9737 13.0404H32.1438C31.9109 13.0404 31.7221 13.2302 31.7221 13.4642V13.4666V17.7899C31.7221 18.024 31.9109 18.2138 32.1438 18.2138" fill="#2496ED"/>
</g>
</svg>

<svg xmlns="http://www.w3.org/2000/svg" width="55" height="41" fill="none"><g fill="#2496ED"><path d="M54.441 15.493c-.148-.118-1.533-1.17-4.455-1.17-.771.004-1.541.07-2.302.2-.565-3.895-3.77-5.794-3.913-5.88l-.785-.454-.516.748a10.594 10.594 0 0 0-1.394 3.277c-.523 2.223-.205 4.312.919 6.097-1.358.76-3.535.947-3.975.963H1.977a1.717 1.717 0 0 0-1.71 1.712 26.18 26.18 0 0 0 1.578 9.308c1.242 3.272 3.089 5.682 5.492 7.157 2.693 1.657 7.068 2.604 12.028 2.604 2.24.008 4.476-.196 6.68-.608a27.835 27.835 0 0 0 8.716-3.182 23.986 23.986 0 0 0 5.95-4.894c2.855-3.249 4.556-6.866 5.821-10.082h.505c3.126 0 5.049-1.257 6.109-2.31a6.703 6.703 0 0 0 1.611-2.399l.224-.658-.54-.429Z"/><path d="M5.318 18.214h4.83c.233 0 .421-.19.421-.424v-4.323a.423.423 0 0 0-.419-.427H5.318a.423.423 0 0 0-.422.424V17.79c0 .234.189.424.422.424ZM11.974 18.214h4.83c.233 0 .421-.19.421-.424v-4.323a.423.423 0 0 0-.42-.427h-4.832a.425.425 0 0 0-.424.427v4.323c.002.234.191.424.425.424M18.73 18.214h4.83c.234 0 .422-.19.422-.424v-4.323a.423.423 0 0 0-.419-.427h-4.832a.423.423 0 0 0-.422.424V17.79c0 .234.189.424.422.424ZM25.408 18.214h4.83c.233 0 .423-.19.424-.424v-4.323a.425.425 0 0 0-.424-.427h-4.83a.423.423 0 0 0-.422.424V17.79c0 .234.189.424.422.424ZM11.974 11.994h4.83a.425.425 0 0 0 .421-.426V7.244a.423.423 0 0 0-.421-.423h-4.83a.425.425 0 0 0-.424.423v4.324c0 .235.19.425.424.426ZM18.73 11.994h4.83a.425.425 0 0 0 .422-.426V7.244a.423.423 0 0 0-.421-.423h-4.83a.423.423 0 0 0-.422.423v4.324c0 .234.188.425.422.426ZM25.408 11.994h4.83a.427.427 0 0 0 .424-.426V7.244a.425.425 0 0 0-.424-.423h-4.83a.423.423 0 0 0-.422.423v4.324c0 .234.189.425.422.426ZM25.408 5.772h4.83c.233 0 .423-.19.424-.424V1.022a.425.425 0 0 0-.424-.424h-4.83a.423.423 0 0 0-.422.424v4.326c0 .234.189.424.422.424ZM32.144 18.214h4.83c.233 0 .423-.19.424-.424v-4.323a.425.425 0 0 0-.424-.427h-4.83a.423.423 0 0 0-.422.424V17.79c0 .234.189.424.422.424"/></g></svg>
